X:246
T:Kitty's Rambles
R:jig
H:For a more common version, see #300
Z:id:hn-jig-246
M:6/8
K:Dmix
fed cAc|dcd efg|fed cAG|FAF GFE|
DFA dcd|dcd efg|fed cAG|ABc d3:|
|:dfa dfa|dfa afd|ceg ceg|ceg gfe|
fef ~g3|agf efg|fed cAG|1 ABc d3:|2 ABc dfg||
|:afd d^cd|dfa agf|gec cBc|ceg gfe|
fef ~g3|agf efg|fed cAG|1 ABc dfg:|2 ABc d3||

